X: 21612
Q: "Allegretto."
M: 2/4
L: 1/16
K: G
!p!.G.A |\
.B2.B.c .B2.B.c | B2G2 G2FG | .A2.B.c .c2.d.e | e2d2 d2c2 |\
|: !f!z2 |\
.A.B.^c2 .c.d.e2 | .f.g.a2 .d.e.f2 | {fg}.f2.e2 .g.f.e2 | {ef}.e2.d2 .f.e.d2 |\
|: !p!.G.A |\
.B2.B.c .B2.B.c | B2G2 G2FG | .A.B.c2 .c.d.e2 | e2d2 d2c2 |\


